X: 22413
T: Ladies In The Salt Pound
R: polka
M: 2/4
K: Gmajor
|:B/c/B/A/ GE|DE GA|B>c BA|GB d2|
B/c/B/A/ GE|DE GA|B>c BA|AG G2:|
|:ef g2|eA A2|Bd ef|g2 fd|
ef g2|eA A2|Bd ef|1 g2 fd:|2 g4||

